X:302
T:Air de la gaillarde appellee I'aymerois mieulx dormir seulette.
R:Gaillarde
C:Trad.
S:Thoinot Arbeau
A:Champaigne
B:Orchesographie (1589)
O:France
Z:<eric.forgeot@caramail.com> -- http://anamnese.fr.st
M:6/2
L:1/2
Q:1/2=150
K:F
FFFFFF | GGG AzA | BBB AAA | AGG ^Fz^F |
FGA BBA | AGG ^FzF | FGA BBA | GG^F GzG ||


